assets/contact-book-fill.svg

<svg xmlns="http://www.w3.org/2000/svg" fill="none" viewBox="0 0 20 27">
  <path stroke="#2A2238" stroke-width="1.5" d="M3 .75h16.25v22.5H.75V3C.75 1.75736 1.75736.75 3 .75Z"/>
  <path stroke="#2A2238" stroke-width="1.5" d="M.75 22.75h18.5v3.5H3C1.75736 26.25.75 25.2426.75 24v-1.25Z"/>
  <path fill="#2A2238" d="M15 16.3548c0-1.2319-.5268-2.4134-1.4645-3.2846-.9376-.8711-2.2094-1.3605-3.5355-1.3605-1.32608 0-2.59785.4894-3.53553 1.3605C5.52678 13.9414 5 15.1229 5 16.3548h10Z"/>
  <ellipse cx="10.2777" cy="7.83871" fill="#2A2238" rx="3.05556" ry="2.83871"/>
</svg>

<svg width="20" height="27" viewBox="0 0 20 27" fill="none" xmlns="http://www.w3.org/2000/svg">
<path d="M3 0.75H19.25V23.25H0.75V3C0.75 1.75736 1.75736 0.75 3 0.75Z" stroke="#2A2238" stroke-width="1.5"/>
<path d="M0.75 22.75H19.25V26.25H3C1.75736 26.25 0.75 25.2426 0.75 24V22.75Z" stroke="#2A2238" stroke-width="1.5"/>
<path d="M15 16.3548C15 15.1229 14.4732 13.9414 13.5355 13.0702C12.5979 12.1991 11.3261 11.7097 10 11.7097C8.67392 11.7097 7.40215 12.1991 6.46447 13.0702C5.52678 13.9414 5 15.1229 5 16.3548L10 16.3548H15Z" fill="#2A2238"/>
<ellipse cx="10.2777" cy="7.83871" rx="3.05556" ry="2.83871" fill="#2A2238"/>
</svg>
